X:3
T:Stammwalzer CF 2+ chords
R:waltz
M:3/4
L:1/4
K:Gmaj%%MIDI gchordon
d/2d/2 | "D7"d3 | c3 | (f3 | f)ze/2e/2 | e3 | d2c | "G"B3 | gzg/2g/2 | b3 | a2g | 
"Am"f3 | ezd/2d/2 | "D7"d e/2d/2 c/2d/2 | f e/2d/2 c/2A/2 | "G"Gzg | gzz |: "D7"a/2a/2 af | ba/2a/2a | "G"gzB | 
ezd | "D7"A2f | A2f |1 "G"B2g | B2g :|2 "G"g>gg | gzz || [K:Cmaj] "C"g3 | c'3 | "G7"b3 | a2g | 
b3 | a2g | "C"c'3 | a2g | g3 | c'3 | "G7"b3 | a2g | b3 | a2g | "C"c'>c'c' | c'zz |] 

